src/modules/75-ce/components/COGatewayConfig/images/spotIcon.svg

<svg fill="none" height="26" viewBox="0 0 707 637" width="28" xmlns="http://www.w3.org/2000/svg" xmlns:xlink="http://www.w3.org/1999/xlink"><mask id="a" height="282" maskUnits="userSpaceOnUse" width="277" x="4" y="355"><rect fill="#c4c4c4" height="282" mask="url(#b)" rx="21" stroke="#3dc7f6" stroke-width="98" width="277" x="4" y="355"/></mask><mask id="b" fill="#fff"><rect fill="#fff" height="282" rx="21" width="277" x="4" y="355"/></mask><mask id="c" height="282" maskUnits="userSpaceOnUse" width="277" x="427" y="181"><rect fill="#c4c4c4" height="282" mask="url(#d)" rx="21" stroke="#3dc7f6" stroke-width="98" width="277" x="427" y="181"/></mask><mask id="d" fill="#fff"><rect fill="#fff" height="282" rx="21" width="277" x="427" y="181"/></mask><mask id="e" height="282" maskUnits="userSpaceOnUse" width="277" x="76" y="3"><rect fill="#c4c4c4" height="282" mask="url(#f)" rx="21" stroke="#3dc7f6" stroke-width="98" width="277" x="76" y="3"/></mask><mask id="f" fill="#fff"><rect fill="#fff" height="282" rx="21" width="277" x="76" y="3"/></mask><g stroke="#3dc7f6"><g mask="url(#a)"><path d="m-63.8809-324.691 728.1579 738.448" stroke-width="2.5"/><g stroke-width="16.5"><path d="m-287.928-324.691 858.853 870.99"/><path d="m-175.902-324.691 802.84 814.187"/><path d="m-362.611-286.823 877.523 889.925"/><path d="m-399.951-154.28 821.511 833.122"/><path d="m-362.611-230.019 840.181 852.057"/><path d="m-399.951-97.4766 784.169 795.2526"/><path d="m-418.625-2.80322 746.828 757.38322"/><path d="m-381.277-192.149 840.181 852.056"/><path d="m-418.625-59.6074 784.169 795.2524"/><path d="m-437.291 35.0654 728.157 738.4486"/></g><path d="m-474.635 224.411 616.133 624.841" stroke-width="2.5"/><path d="m-437.291 148.673 653.475 662.71" stroke-width="16.5"/><path d="m-455.965 186.542 634.804 643.776" stroke-width="2.5"/><path d="m-493.305 262.281 597.463 605.906" stroke-width="2.5"/><path d="m-493.305 319.084 560.1214 568.037" stroke-width="2.5"/><path d="m-493.305 375.889 522.78 530.168" stroke-width="2.5"/><path d="m-455.965 72.9346 728.158 738.4484" stroke-width="16.5"/><path d="m-119.893-324.691 765.499 776.317" stroke-width="16.5"/><path d="m-343.938-324.691 877.523 889.925" stroke-width="16.5"/><path d="m-231.916-324.691 821.511 833.121" stroke-width="16.5"/><path d="m-7.86719-324.691 709.48619 719.514" stroke-width="2.5"/></g><rect height="278" rx="18" stroke-width="6" width="278" x="3" y="355"/><g mask="url(#c)"><path d="m359.119-498.691 728.161 738.448" stroke-width="2.5"/><g stroke-width="16.5"><path d="m135.072-498.691 858.853 870.99"/><path d="m247.098-498.691 802.842 814.187"/><path d="m60.3887-460.823 877.5233 889.925"/><path d="m23.0488-328.28 821.5112 833.122"/><path d="m60.3887-404.019 840.1813 852.057"/><path d="m23.0488-271.477 784.1692 795.253"/><path d="m4.375-176.803 746.828 757.383"/><path d="m41.7227-366.149 840.1813 852.056"/><path d="m4.375-233.607 784.169 795.252"/><path d="m-14.291-138.935 728.157 738.449"/></g><path d="m-51.6348 50.4111 616.1328 624.8409" stroke-width="2.5"/><path d="m-14.291-25.3271 653.475 662.7101" stroke-width="16.5"/><path d="m-32.9648 12.5425 634.8038 643.7755" stroke-width="2.5"/><path d="m-70.3047 88.2808 597.4627 605.9062" stroke-width="2.5"/><path d="m-70.3047 145.084 560.1207 568.037" stroke-width="2.5"/><path d="m-70.3047 201.889 522.7797 530.168" stroke-width="2.5"/><path d="m-32.9648-101.065 728.1578 738.448" stroke-width="16.5"/><path d="m303.107-498.691 765.503 776.317" stroke-width="16.5"/><path d="m79.0625-498.691 877.5225 889.925" stroke-width="16.5"/><path d="m191.084-498.691 821.506 833.121" stroke-width="16.5"/><path d="m415.133-498.691 709.487 719.514" stroke-width="2.5"/></g><rect height="278" rx="18" stroke-width="6" width="278" x="426" y="181"/><g mask="url(#e)"><path d="m8.11914-676.691 728.15786 738.4484" stroke-width="2.5"/><g stroke-width="16.5"><path d="m-215.928-676.691 858.853 870.99"/><path d="m-103.902-676.691 802.84 814.187"/><path d="m-290.611-638.823 877.523 889.925"/><path d="m-327.951-506.28 821.511 833.122"/><path d="m-290.611-582.019 840.181 852.057"/><path d="m-327.951-449.477 784.169 795.253"/><path d="m-346.625-354.803 746.828 757.383"/><path d="m-309.277-544.149 840.181 852.056"/><path d="m-346.625-411.607 784.169 795.252"/><path d="m-365.291-316.935 728.157 738.449"/></g><path d="m-402.635-127.589 616.133 624.841" stroke-width="2.5"/><path d="m-365.291-203.327 653.475 662.71" stroke-width="16.5"/><path d="m-383.965-165.458 634.804 643.776" stroke-width="2.5"/><path d="m-421.305-89.7192 597.463 605.9062" stroke-width="2.5"/><path d="m-421.305-32.916 560.121 568.037" stroke-width="2.5"/><path d="m-421.305 23.8887 522.78 530.1683" stroke-width="2.5"/><path d="m-383.965-279.065 728.158 738.448" stroke-width="16.5"/><path d="m-47.8926-676.691 765.4986 776.3174" stroke-width="16.5"/><path d="m-271.938-676.691 877.523 889.925" stroke-width="16.5"/><path d="m-159.916-676.691 821.511 833.121" stroke-width="16.5"/><path d="m64.1328-676.691 709.4862 719.5138" stroke-width="2.5"/></g><rect height="278" rx="18" stroke-width="6" width="278" x="75" y="3"/></g></svg>

<svg  width="28" height="26" viewBox="0 0 707 637" fill="none" xmlns="http://www.w3.org/2000/svg">
<mask id="mask0" mask-type="alpha" maskUnits="userSpaceOnUse" x="4" y="355" width="277" height="282">
<mask id="path-1-inside-1" mask-type="luminance" fill="white">
<rect x="4" y="355" width="277" height="282" rx="21"/>
</mask>
<rect x="4" y="355" width="277" height="282" rx="21" fill="#C4C4C4" stroke="#3DC7F6" stroke-width="98" mask="url(#path-1-inside-1)"/>
</mask>
<g mask="url(#mask0)">
<path d="M-63.8809 -324.691L664.277 413.757" stroke="#3DC7F6" stroke-width="2.5"/>
<path d="M-287.928 -324.691L570.925 546.299" stroke="#3DC7F6" stroke-width="16.5"/>
<path d="M-175.902 -324.691L626.938 489.496" stroke="#3DC7F6" stroke-width="16.5"/>
<path d="M-362.611 -286.823L514.912 603.102" stroke="#3DC7F6" stroke-width="16.5"/>
<path d="M-399.951 -154.28L421.56 678.842" stroke="#3DC7F6" stroke-width="16.5"/>
<path d="M-362.611 -230.019L477.57 622.038" stroke="#3DC7F6" stroke-width="16.5"/>
<path d="M-399.951 -97.4766L384.218 697.776" stroke="#3DC7F6" stroke-width="16.5"/>
<path d="M-418.625 -2.80322L328.203 754.58" stroke="#3DC7F6" stroke-width="16.5"/>
<path d="M-381.277 -192.149L458.904 659.907" stroke="#3DC7F6" stroke-width="16.5"/>
<path d="M-418.625 -59.6074L365.544 735.645" stroke="#3DC7F6" stroke-width="16.5"/>
<path d="M-437.291 35.0654L290.866 773.514" stroke="#3DC7F6" stroke-width="16.5"/>
<path d="M-474.635 224.411L141.498 849.252" stroke="#3DC7F6" stroke-width="2.5"/>
<path d="M-437.291 148.673L216.184 811.383" stroke="#3DC7F6" stroke-width="16.5"/>
<path d="M-455.965 186.542L178.839 830.318" stroke="#3DC7F6" stroke-width="2.5"/>
<path d="M-493.305 262.281L104.158 868.187" stroke="#3DC7F6" stroke-width="2.5"/>
<path d="M-493.305 319.084L66.8164 887.121" stroke="#3DC7F6" stroke-width="2.5"/>
<path d="M-493.305 375.889L29.475 906.057" stroke="#3DC7F6" stroke-width="2.5"/>
<path d="M-455.965 72.9346L272.193 811.383" stroke="#3DC7F6" stroke-width="16.5"/>
<path d="M-119.893 -324.691L645.606 451.626" stroke="#3DC7F6" stroke-width="16.5"/>
<path d="M-343.938 -324.691L533.585 565.234" stroke="#3DC7F6" stroke-width="16.5"/>
<path d="M-231.916 -324.691L589.595 508.43" stroke="#3DC7F6" stroke-width="16.5"/>
<path d="M-7.86719 -324.691L701.619 394.823" stroke="#3DC7F6" stroke-width="2.5"/>
</g>
<rect x="3" y="355" width="278" height="278" rx="18" stroke="#3DC7F6" stroke-width="6"/>
<mask id="mask1" mask-type="alpha" maskUnits="userSpaceOnUse" x="427" y="181" width="277" height="282">
<mask id="path-25-inside-2" mask-type="luminance" fill="white">
<rect x="427" y="181" width="277" height="282" rx="21"/>
</mask>
<rect x="427" y="181" width="277" height="282" rx="21" fill="#C4C4C4" stroke="#3DC7F6" stroke-width="98" mask="url(#path-25-inside-2)"/>
</mask>
<g mask="url(#mask1)">
<path d="M359.119 -498.691L1087.28 239.757" stroke="#3DC7F6" stroke-width="2.5"/>
<path d="M135.072 -498.691L993.925 372.299" stroke="#3DC7F6" stroke-width="16.5"/>
<path d="M247.098 -498.691L1049.94 315.496" stroke="#3DC7F6" stroke-width="16.5"/>
<path d="M60.3887 -460.823L937.912 429.102" stroke="#3DC7F6" stroke-width="16.5"/>
<path d="M23.0488 -328.28L844.56 504.842" stroke="#3DC7F6" stroke-width="16.5"/>
<path d="M60.3887 -404.019L900.57 448.038" stroke="#3DC7F6" stroke-width="16.5"/>
<path d="M23.0488 -271.477L807.218 523.776" stroke="#3DC7F6" stroke-width="16.5"/>
<path d="M4.375 -176.803L751.203 580.58" stroke="#3DC7F6" stroke-width="16.5"/>
<path d="M41.7227 -366.149L881.904 485.907" stroke="#3DC7F6" stroke-width="16.5"/>
<path d="M4.375 -233.607L788.544 561.645" stroke="#3DC7F6" stroke-width="16.5"/>
<path d="M-14.291 -138.935L713.866 599.514" stroke="#3DC7F6" stroke-width="16.5"/>
<path d="M-51.6348 50.4111L564.498 675.252" stroke="#3DC7F6" stroke-width="2.5"/>
<path d="M-14.291 -25.3271L639.184 637.383" stroke="#3DC7F6" stroke-width="16.5"/>
<path d="M-32.9648 12.5425L601.839 656.318" stroke="#3DC7F6" stroke-width="2.5"/>
<path d="M-70.3047 88.2808L527.158 694.187" stroke="#3DC7F6" stroke-width="2.5"/>
<path d="M-70.3047 145.084L489.816 713.121" stroke="#3DC7F6" stroke-width="2.5"/>
<path d="M-70.3047 201.889L452.475 732.057" stroke="#3DC7F6" stroke-width="2.5"/>
<path d="M-32.9648 -101.065L695.193 637.383" stroke="#3DC7F6" stroke-width="16.5"/>
<path d="M303.107 -498.691L1068.61 277.626" stroke="#3DC7F6" stroke-width="16.5"/>
<path d="M79.0625 -498.691L956.585 391.234" stroke="#3DC7F6" stroke-width="16.5"/>
<path d="M191.084 -498.691L1012.59 334.43" stroke="#3DC7F6" stroke-width="16.5"/>
<path d="M415.133 -498.691L1124.62 220.823" stroke="#3DC7F6" stroke-width="2.5"/>
</g>
<rect x="426" y="181" width="278" height="278" rx="18" stroke="#3DC7F6" stroke-width="6"/>
<mask id="mask2" mask-type="alpha" maskUnits="userSpaceOnUse" x="76" y="3" width="277" height="282">
<mask id="path-49-inside-3" mask-type="luminance" fill="white">
<rect x="76" y="3" width="277" height="282" rx="21"/>
</mask>
<rect x="76" y="3" width="277" height="282" rx="21" fill="#C4C4C4" stroke="#3DC7F6" stroke-width="98" mask="url(#path-49-inside-3)"/>
</mask>
<g mask="url(#mask2)">
<path d="M8.11914 -676.691L736.277 61.7574" stroke="#3DC7F6" stroke-width="2.5"/>
<path d="M-215.928 -676.691L642.925 194.299" stroke="#3DC7F6" stroke-width="16.5"/>
<path d="M-103.902 -676.691L698.938 137.496" stroke="#3DC7F6" stroke-width="16.5"/>
<path d="M-290.611 -638.823L586.912 251.102" stroke="#3DC7F6" stroke-width="16.5"/>
<path d="M-327.951 -506.28L493.56 326.842" stroke="#3DC7F6" stroke-width="16.5"/>
<path d="M-290.611 -582.019L549.57 270.038" stroke="#3DC7F6" stroke-width="16.5"/>
<path d="M-327.951 -449.477L456.218 345.776" stroke="#3DC7F6" stroke-width="16.5"/>
<path d="M-346.625 -354.803L400.203 402.58" stroke="#3DC7F6" stroke-width="16.5"/>
<path d="M-309.277 -544.149L530.904 307.907" stroke="#3DC7F6" stroke-width="16.5"/>
<path d="M-346.625 -411.607L437.544 383.645" stroke="#3DC7F6" stroke-width="16.5"/>
<path d="M-365.291 -316.935L362.866 421.514" stroke="#3DC7F6" stroke-width="16.5"/>
<path d="M-402.635 -127.589L213.498 497.252" stroke="#3DC7F6" stroke-width="2.5"/>
<path d="M-365.291 -203.327L288.184 459.383" stroke="#3DC7F6" stroke-width="16.5"/>
<path d="M-383.965 -165.458L250.839 478.318" stroke="#3DC7F6" stroke-width="2.5"/>
<path d="M-421.305 -89.7192L176.158 516.187" stroke="#3DC7F6" stroke-width="2.5"/>
<path d="M-421.305 -32.916L138.816 535.121" stroke="#3DC7F6" stroke-width="2.5"/>
<path d="M-421.305 23.8887L101.475 554.057" stroke="#3DC7F6" stroke-width="2.5"/>
<path d="M-383.965 -279.065L344.193 459.383" stroke="#3DC7F6" stroke-width="16.5"/>
<path d="M-47.8926 -676.691L717.606 99.6264" stroke="#3DC7F6" stroke-width="16.5"/>
<path d="M-271.938 -676.691L605.585 213.234" stroke="#3DC7F6" stroke-width="16.5"/>
<path d="M-159.916 -676.691L661.595 156.43" stroke="#3DC7F6" stroke-width="16.5"/>
<path d="M64.1328 -676.691L773.619 42.8228" stroke="#3DC7F6" stroke-width="2.5"/>
</g>
<rect x="75" y="3" width="278" height="278" rx="18" stroke="#3DC7F6" stroke-width="6"/>
</svg>
